2 Export/Icons/Outlined/Favorite.svg

<svg xmlns="http://www.w3.org/2000/svg" xmlns:xlink="http://www.w3.org/1999/xlink" width="24" height="24" viewBox="0 0 24 24">
  <defs>
    <path id="favorite-a" d="M19.66 3.99c-2.64-1.8-5.9-.96-7.66 1.1-1.76-2.06-5.02-2.91-7.66-1.1-1.4.96-2.28 2.58-2.34 4.29-.14 3.88 3.3 6.99 8.55 11.76l.1.09c.76.69 1.93.69 2.69-.01l.11-.1c5.25-4.76 8.68-7.87 8.55-11.75-.06-1.7-.94-3.32-2.34-4.28zM12.1 18.55l-.1.1-.1-.1C7.14 14.24 4 11.39 4 8.5 4 6.5 5.5 5 7.5 5c1.54 0 3.04.99 3.57 2.36h1.87C13.46 5.99 14.96 5 16.5 5c2 0 3.5 1.5 3.5 3.5 0 2.89-3.14 5.74-7.9 10.05z"/>
  </defs>
  <g fill="none" fill-rule="evenodd">
    <polygon points="0 0 24 0 24 24 0 24"/>
    <mask id="favorite-b" fill="#fff">
      <use xlink:href="#favorite-a"/>
    </mask>
    <use fill="#000" xlink:href="#favorite-a"/>
    <g fill="#000" mask="url(#favorite-b)">
      <rect width="24" height="24"/>
    </g>
  </g>
</svg>

<svg xmlns="http://www.w3.org/2000/svg" xmlns:xlink="http://www.w3.org/1999/xlink" width="24" height="24" viewBox="0 0 24 24">
  <defs>
    <path id="favorite-a" d="M19.66,3.99 C17.02,2.19 13.76,3.03 12,5.09 C10.24,3.03 6.98,2.18 4.34,3.99 C2.94,4.95 2.06,6.57 2,8.28 C1.86,12.16 5.3,15.27 10.55,20.04 L10.65,20.13 C11.41,20.82 12.58,20.82 13.34,20.12 L13.45,20.02 C18.7,15.26 22.13,12.15 22,8.27 C21.94,6.57 21.06,4.95 19.66,3.99 L19.66,3.99 Z M12.1,18.55 L12,18.65 L11.9,18.55 C7.14,14.24 4,11.39 4,8.5 C4,6.5 5.5,5 7.5,5 C9.04,5 10.54,5.99 11.07,7.36 L12.94,7.36 C13.46,5.99 14.96,5 16.5,5 C18.5,5 20,6.5 20,8.5 C20,11.39 16.86,14.24 12.1,18.55 Z"/>
  </defs>
  <g fill="none" fill-rule="evenodd">
    <polygon points="0 0 24 0 24 24 0 24"/>
    <mask id="favorite-b" fill="#fff">
      <use xlink:href="#favorite-a"/>
    </mask>
    <use fill="#000" xlink:href="#favorite-a"/>
    <g fill="#000" mask="url(#favorite-b)">
      <rect width="24" height="24"/>
    </g>
  </g>
</svg>
